svgs/light/fire.svg

<svg xmlns="http://www.w3.org/2000/svg" viewBox="0 0 448 512"><!--! Font Awesome Pro 6.0.0-alpha3 by @fontawesome - https://fontawesome.com License - https://fontawesome.com/license (Commercial License) --><path d="M327.1 218.8c-2.656-4.344-7.219-7.156-12.28-7.594c-5.125-.2813-10.05 1.562-13.41 5.375l-38.58 44c-23.11-29.47-70.2-89.5-75.16-95.16C184.6 161.9 179.5 159.2 175.5 160C170.8 160.1 166.4 162.2 163.4 165.8C122.7 214.5 96 249.5 96 290.4C96 299.3 103.2 306.4 112 306.4S128 299.3 128 290.4c0-24.72 14.77-48.78 47.5-89.06c17.56 22.12 50.45 64.03 74.08 94.22c2.938 3.75 7.391 6 12.14 6.125c5.203 .1875 9.344-1.844 12.48-5.438l36.33-41.47c19.27 39.81 8.547 87.06-25.61 111c-7.234 5.062-8.984 15.03-3.922 22.28c3.125 4.438 8.078 6.812 13.12 6.812c3.172 0 6.375-.9375 9.172-2.906c48.08-33.69 62.78-100.2 34.17-154.8C334.4 231.3 330.9 225.1 327.1 218.8zM327.3 52.34c-6.156-5.75-15.72-5.75-21.88 0c-14.03 13.16-27.58 27.25-40.44 42.06c-23.86-31-51.94-61.84-82.08-90.09c-6.156-5.75-15.72-5.75-21.88 0C67.73 91.72 0 207.7 0 280C0 407.9 100.5 512 224 512s224-104.1 224-231.1C448 225.8 398.4 118.1 327.3 52.34zM224 480c-105.9 0-192-89.72-192-199.1c0-60.59 59.45-162.6 140-241.9c29.73 29 56.95 60.38 79.28 91.38c2.922 4.062 7.547 6.5 12.53 6.656c5.922 .2187 9.766-2.062 12.89-5.938c12.45-15.41 25.7-30.09 39.55-43.88C373.2 145.5 416 236.2 416 280C416 390.3 329.9 480 224 480z"/></svg>

<svg xmlns="http://www.w3.org/2000/svg" viewBox="0 0 448 512"><!-- Font Awesome Pro 6.0.0-alpha2 by @fontawesome - https://fontawesome.com License - https://fontawesome.com/license (Commercial License) --><path d="M327.125 218.844C324.469 214.5 319.906 211.688 314.844 211.25C309.719 210.969 304.797 212.812 301.437 216.625L262.859 260.625C239.75 231.156 192.656 171.125 187.703 165.469C184.609 161.938 179.5 159.156 175.469 160C170.797 160.062 166.375 162.156 163.375 165.75C122.672 214.5 96 249.531 96 290.406C96 299.25 103.156 306.406 112 306.406S128 299.25 128 290.406C128 265.688 142.766 241.625 175.5 201.344C193.062 223.469 225.953 265.375 249.578 295.562C252.516 299.312 256.969 301.562 261.719 301.687C266.922 301.875 271.062 299.844 274.203 296.25L310.531 254.781C329.797 294.594 319.078 341.844 284.922 365.781C277.687 370.844 275.937 380.812 281 388.062C284.125 392.5 289.078 394.875 294.125 394.875C297.297 394.875 300.5 393.937 303.297 391.969C351.375 358.281 366.078 291.75 337.469 237.125C334.359 231.25 330.906 225.062 327.125 218.844ZM327.328 52.344C321.172 46.594 311.609 46.594 305.453 52.344C291.422 65.5 277.875 79.594 265.016 94.406C241.156 63.406 213.078 32.562 182.937 4.312C176.781 -1.438 167.219 -1.438 161.062 4.312C67.734 91.719 0 207.656 0 280.031C0 407.938 100.484 512 224 512S448 407.938 448 280.031C448 225.812 398.438 118.969 327.328 52.344ZM224 480C118.125 480 32 390.281 32 280.031C32 219.438 91.453 117.438 172.016 38.156C201.75 67.156 228.969 98.531 251.297 129.531C254.219 133.594 258.844 136.031 263.828 136.188C269.75 136.406 273.594 134.125 276.719 130.25C289.172 114.844 302.422 100.156 316.266 86.375C373.219 145.5 416 236.156 416 280.031C416 390.281 329.875 480 224 480Z"/></svg>
